X: 09114
T: TOMMY'S WALTZ
C: Bob McQuillen 26 Feb 1992
B: Bob's Note Book 9 p. 114
R: waltz
Z: 2017 John Chambers <jc:trillian.mit.edu>
L: 1/4
M: 3/4
K: G
D |\
"G"d3 | "D7"c3 | "G"B3 | "D7"ABc |\
"G"B3 | "D"A3 | "G"G3- | "G7"G2D |\
"C"E3 | "C7"EFG | "G"D3 | "Em"Bdc |\
"A7"B3 | AGE | "D7"ADE | FED |
|\
"G"d3 | "D"c3 | "G"B3 | "D7"ABc |\
"G"B3 | "D7"A3 | "G7"G3 | Bcd |\
"C"e3 | "C7"fga | "G"gfe | "E7"dBc |\
"A7"B3 | "D7"A3 | "G"G3- | G2 ||
D |\
"G"D3 | G2F | "C"E3- | E2E |\
"A7"E3 | A2G | "D7"F3- F2F |\
"B"F3 | B2A | "Em"G3 | A2B |\
"C"c3 | "G"B3 | "D7"ADE | FED |
"G"d3 | "B"B3 | "Em"G3 | Bcd |\
"C"e3 | c3 | "D7"A3- | ABc |\
"G"d3 | g2f | "C"g3 | d2c |\
"G"B3 | "D"A3 | "G"G3- | G2 |]
%%begintext align
%% I always got a big lift out of it when Tom McTague stops by for a visit.
%% He's one of my favorite school boys, and one time he said, "Hey, Mac,
%% write me a tune someday; make it a waltz!" (indicating that while
%% he might not know a reel from a jig, he knew what a waltz was!)
%% So here it is, Tommy, and I sure hope you like it- with much love from MAC.
%%endtext

%%sep 1 1 500

%%sep 1 1 500

